X: 26
P: Longways for as many as will
M: 6/4
L: 1/4
K: G
(e<c)(e/c/) (d<B)(d/B/) | (c<A)(a/A/) B>cd | e2a d>cB | A3 G2 |]
c2g ceg | B2g Bdg | A2f gAG | F3 D2B |\
(c<e)(e/c/) (e<c)(e/c/) | (d<B)(g/G/) (d<A)(a/A/) | d<Bd g<ea | f3 g2 |]

